X: 261
T: The humors of Ayle House
C: anon.
O: Ireland
B: Francis O'Neill: "The Dance Music of Ireland" (1907) no. 261
R: Double jig
Z: Transcribed by Frank Nordberg - http://www.musicaviva.com
F: http://www.musicaviva.com/abc/tunes/ireland/oneill-1001/oneill-1001-026
1.abc
m: Tn2 = (3n/o/n/ m/n/
M: 6/8
L: 1/8
K: D
(G|F)DF TE2(d|c)AA A2(G|F)DE TF2d|cAF GA(G|F)DE TF2d|cAB cde|(fe)f (d/f/e
)(d|c)AF G2:|
|:B|cAA fe(d|c)AG A2B|cAA fe(d|c)AF G2B|cAA fed|cAB cde|(fe)d (d/f/e)(d|c
)AF G2:|
W:
W:
W: From Musica Viva - http://www.musicaviva.com
W: the Internet center for free sheet music downloads.


